icons/auction-line.svg

<svg viewBox="0 0 24 24" fill="currentColor" xmlns="http://www.w3.org/2000/svg">
    <path d="M14.0049 20.0028V22.0028H2.00488V20.0028H14.0049ZM14.5907 0.689087L22.3688 8.46726L20.9546 9.88147L19.894 9.52792L17.4191 12.0028L23.076 17.6597L21.6617 19.0739L16.0049 13.417L13.6007 15.8212L13.8836 16.9525L12.4693 18.3668L4.69117 10.5886L6.10539 9.17437L7.23676 9.45721L13.53 3.16396L13.1765 2.1033L14.5907 0.689087ZM15.2978 4.22462L8.22671 11.2957L11.7622 14.8312L18.8333 7.76015L15.2978 4.22462Z"/>
</svg>

<svg xmlns="http://www.w3.org/2000/svg" viewBox="0 0 24 24">
    <g>
        <path fill="none" d="M0 0h24v24H0z"/>
        <path d="M14 20v2H2v-2h12zM14.586.686l7.778 7.778L20.95 9.88l-1.06-.354L17.413 12l5.657 5.657-1.414 1.414L16 13.414l-2.404 2.404.283 1.132-1.415 1.414-7.778-7.778 1.415-1.414 1.13.282 6.294-6.293-.353-1.06L14.586.686zm.707 3.536l-7.071 7.07 3.535 3.536 7.071-7.07-3.535-3.536z"/>
    </g>
</svg>
